X:2
T:Ah me! Can Every Rumour
C:John Wilbye
%#Noindex
%%transpose 2
%%measurenb 0
%%score [1 2 3]
L:1/4
M:4/4
I:linebreak $
K:Bb
V:1 treble nm="Treble I"
%%MIDI program 73
V:2 treble nm="Treble II"
%%MIDI program 73
V:3 bass+8 nm="Bass" octave=-1
%%MIDI program 73
V:1
 B4 | A4 | z d2 c- | c B A2 | G3 B |$ B3/2 A/ B G | ^F G2 F | B4 | A4 | z ^F G A | ^F G2 F |$ %11
w: Ah|me!|can ev'-|- ry ru-|mour thus|start my la- dy's|hu- -mour?|Ah|me!|can ev'- ry|ru- --|
 G3 G | ^F2 z B | A2 z d | B3/2 A/ B d | ^c d2 c | d4 |$ B4 | c B A G | ^F F z2 | B B/c/ d3/2 e/ |$ %21
w: mour thus|start, thus|start, thus|start my la- dy's|hu- --|mour?|Name|ye some gal- lant|to her,|name ye some gal- lant|
 f2 B2- | B B e3/2 d/ | c B2 A | B2 d2- | d2 c2 |$ B2 A2- | A G G2- | G2 ^F2 | G2 g2- | g2 f2- | %31
w: to her,|_ Why straight for-|sooth I woo|her, Then|_ burst|she forth|_ in pas-|--|sion, then|_ burst|
 f2 e2 | d3/2 c/ c2- |$ c2 =B2 | c2 G2 | A3 c | =B c d2 | e2 z d |$ e3 g | ^f g g f | g4 | %41
w: _ she|forth in pas-|--|sion, "You|men  love|but for fash-|ion, you|men love|but for fash- -|ion;"|
 z2 z g |$ g2 d f- | f c e2 | d G3/2 G/ ^F | G G d2- | d2 G2 |$ z g3/2 f/ e | d d c2 | %49
w: Yet|sure I am|_ that no|man e- ver so|lov- ed wo-|- man;|Yet a- las,|love be wa-|
 =B g3/2 f/ e | d c =B2 | c4 |$ =E2 ^F G | A B A2 | =B2 d d- | d A c2 | G B2 A- |$ A E G2 | %58
w: ry, yet a- las,|love be wa-|ry,|For wo- men|be con- tra-|ry. Yet sure|_ I am,|that no man|_ yet sure|
 D d2 A | B2 A2 | z d3/2 d/ c |$ d d c2 | =B g3/2 f/ e | d d c2 | =B c d2 | c2 z G- |$ G c2 B | %67
w: I am that|no man|e- ver so|lov- ed wo-|man; Yet a- las,|love be wa-|ry, be wa-|ry, For|_ wo- men|
 A G2 ^F | G4- | G4 |] %70
w: be con- tra-|ry.|_|
V:2
 z2 G2- | G2 ^F2 | z ^F G A | ^F G2 F | G2 z2 |$ z d d3/2 c/ | d B A2 | G2 g2- | g2 ^f2 | z d2 c- | %10
w: Ah|_ me!|can ev'- ry|ru- --|mour|Thus start my|la- dy's hu-|mour? Ah|_ me!|can ev'-|
 c B A2 |$ =B4- | B2 z2 | z c f2 | z d2 g- | g f =e2 | ^f4 |$ d4 | e d c B | A2 A2 | z2 B B/c/ |$ %21
w: - ry ru-|mour|_|thus start|my la-|- dy's hu-|mour?|Name|ye some gal- lant|to her,|name ye some|
 d3/2 e/ f F | G2 G B | A B c2 | d2 f2- | f2 e2 |$ d2 c2- | c2 B2 | A4 | =B4 | e2 d2- | d2 c2 | %32
w: gal- lant to her,|Why straight for|sooth I woo|her, Then|_ burst|she forth|_ in|pas-|sion,|then burst|_ she|
 =B2 c2 |$ d4 | e4 | c2 f3/2 e/ | d c c =B | c2 G2- |$ G2 c3/2 B/ | A G A2 | =B2 d d- | d A c2 |$ %42
w: forth in|pas-|sion,|"You men love|but for fash- -|ion, you|_ men love|but for fash-|ion;" Yet sure|_ I am|
 G B2 A- | A E G2 | D d2 A | B2 A2 | z d3/2 d/ c |$ d d c2 | =B g3/2 f/ e | d d c2 | =B c d2 | %51
w: that no man|_ yet sure|I am that|no man|e- ver so|lov- ed wo-|man; Yet a- las,|love be wa-|ry, be wa-|
 c2 z G- |$ G c2 B | A G G ^F | G2 z2 | z2 z g | g2 d f- |$ f c e2 | d G3/2 G/ ^F | G G d2- | %60
w: ry, For|_ wo- men|be con- tra- -|ry.|Yet|sure I am|_ that no|man e- ver so|lov- ed wo-|
 d2 G2 |$ z g3/2 f/ e | d d c2 | =B g3/2 f/ e | d c =B2 | c4 |$ =E2 ^F G | A B A2 | =B4- | B4 |] %70
w:- man;|Yet a- las,|love be wa-|ry, yet, a- las,|love be wa-|ry,|For wo- men|be con- tra-|ry.|_|
V:3
 G,4 | D4 | z D =B, C | D4 | G,3 G |$ G3/2 ^F/ G E | D2 D2 | G,4 | D4 | z D =B, C | D4 |$ G,3 G, | %12
w: Ah|me!|can ev'- ry|ru-|mour Thus|start my la- dy's|hu- mour?|Ah|me!|can ev'- ry|ru-|mour thus|
 D2 z B, | F2 z D | G2 G2 | A4 | D4 |$ G4 | C2 C2 | D3 C | B,4 |$ B,3 B, | E3/2 D/ C B, | F4 | %24
w: start, thus|start my|la- dy's|hu-|mour?|Name|ye some|gal- lant|to|her, Why|straight for sooth I|woo|
 B,4 | D4- |$ D4 | D4- | D2 D2 | G,4- | G,4 | G,4 | G,4- |$ G,4 | C3 C | F3/2 E/ D C | G4 | %37
w: her,|Then||burst|_ she|forth|_|in|pas-|-|sion, "You|men love but for|fash-|
 C3 =B, |$ C3/2 B,/ A, G, | D4 | G, G G2 | D F2 C |$ E2 D2 | A, C2 G, | B, B, A,2 | G, G3/2 G/ ^F | %46
w: ion, you|men love but for|fash-|ion;" Yet sure|I am that|no man,|yet sure I|am that no|man e- ver so|
 G D E2 |$ D =B,/B,/ C2 | G, G, C2 | G2 C2 | G,4 | C3 C |$ C3/2 B,/ A, G, | D4 | G, G G2 | D F2 C | %56
w: lov- ed wo-|man; Yet a- las,|love be wa-|ry, be|wa-|ry, For|wo- men be con-|tra-|ry. Yet sure|I am, that|
 E2 D2 |$ A, C2 G, | B, B, A,2 | G, G3/2 G/ ^F | G D E2 |$ D =B,/B,/ C2 | G, G, C2 | G2 C2 | G,4 | %65
w: no man,|yet sure I|am that no|man e- ver so|lov- ed wo-|man; Yet a- las,|love be wa-|ry, be|wa-|
 C3 C |$ C3/2 B,/ A, G, | D4 | G,4- | G,4 |] %70
w: ry, For|wo- men be con-|tra-|ry.|_|

